dest/img/SVG/Test icons/implant-hover.svg

<svg id="Layer_1" data-name="Layer 1" xmlns="http://www.w3.org/2000/svg" width="30.59" height="48.61"><defs><style>.cls-1{fill:#fff}</style></defs><path class="cls-1" transform="rotate(-77.43 15.314 29.427)" d="M14.75 21.39h1.13v16.04h-1.13z"/><path class="cls-1" d="M7.31 34.98l.25-1.1 1.33.3V32.1h1.14v2.33l10.52 2.34V34.7h1.14v2.33l1.52.33-.25 1.11-15.65-3.49z"/><path class="cls-1" d="M15.3 48.6a.56.56 0 0 1-.37-.14l-5.67-5H8.9v-4.62H10v3.51h10.56v-.91h1.14v2h-.4l-5.67 5a.56.56 0 0 1-.33.16zm0-1.3l4.32-3.79H11zM8.9 28.57V25.3H6.22v-4.44H4.3l-.12-.4a43 43 0 0 0-1.76-4.52C.18 10.94 0 8.11 0 7.34a6.57 6.57 0 0 1 3-5.68A10.58 10.58 0 0 1 7.64.09h2.92a13.71 13.71 0 0 1 4.44 1l.3.13.3-.1A14.51 14.51 0 0 1 21.3 0a11.54 11.54 0 0 1 6.38 1.66 6.56 6.56 0 0 1 2.91 5.64v.19a3.72 3.72 0 0 1 0 .45 23.72 23.72 0 0 1-2.44 8c-.95 2-1.74 4.47-1.75 4.49l-.1.43h-1.9v4.44h-2.7v6.12zm1.1-.91L20.56 30v-4.7H10v2.37zm-2.68-3.5h15.92v-3.3H7.36v3.3zm.41-23a9.45 9.45 0 0 0-4.14 1.43 5.49 5.49 0 0 0-2.44 4.76c0 .33.07 3.15 2.31 8.12.72 1.59 1.22 2.94 1.54 3.79l.16.47h20.3l.16-.43c.28-.8.85-2.34 1.5-3.75a21.94 21.94 0 0 0 2.34-7.63 1.75 1.75 0 0 0 0-.25V7.3A5.48 5.48 0 0 0 27 2.55a10.45 10.45 0 0 0-5.7-1.42 15.07 15.07 0 0 0-2.95.29l-1.94.39L21 4.24a.57.57 0 0 1-.25 1.06.56.56 0 0 1-.26-.06l-5.41-2.87-.56-.25a12.63 12.63 0 0 0-4-.94z" transform="translate(-.01 .01)"/><path class="cls-1" d="M6.84 11.21a.42.42 0 0 1-.36-.21 3.76 3.76 0 0 1-.08-3.46 4.28 4.28 0 0 1 3-2.62.44.44 0 0 1 .48.33.42.42 0 0 1-.32.5 3.48 3.48 0 0 0-2.37 2.12 2.92 2.92 0 0 0 0 2.68.43.43 0 0 1-.35.66z" transform="translate(-.01 .01)"/></svg>

<svg id="Layer_1" data-name="Layer 1" xmlns="http://www.w3.org/2000/svg" width="30.59" height="48.61" viewBox="0 0 30.59 48.61"><defs><style>.cls-1{fill:#fff;}</style></defs><title>implant-hover</title><rect class="cls-1" x="14.75" y="21.39" width="1.13" height="16.04" transform="translate(-16.74 37.97) rotate(-77.43)"/><polygon class="cls-1" points="7.31 34.98 7.56 33.88 8.89 34.18 8.89 32.1 10.03 32.1 10.03 34.43 20.55 36.77 20.55 34.7 21.69 34.7 21.69 37.03 23.21 37.36 22.96 38.47 7.31 34.98"/><path class="cls-1" d="M15.3,48.6a0.56,0.56,0,0,1-.37-0.14l-5.67-5H8.9V38.84H10v3.51H20.56V41.44H21.7v2H21.3l-5.67,5A0.56,0.56,0,0,1,15.3,48.6Zm0-1.3,4.32-3.79H11Z" transform="translate(-0.01 0.01)"/><path class="cls-1" d="M8.9,28.57V25.3H6.22V20.86H4.3l-0.12-.4a43,43,0,0,0-1.76-4.52C0.18,10.94,0,8.11,0,7.34A6.57,6.57,0,0,1,3,1.66,10.58,10.58,0,0,1,7.64.09h2.92a13.71,13.71,0,0,1,4.44,1l0.3,0.13,0.3-.1A14.51,14.51,0,0,1,21.3,0a11.54,11.54,0,0,1,6.38,1.66A6.56,6.56,0,0,1,30.59,7.3V7.49a3.72,3.72,0,0,1,0,.45,23.72,23.72,0,0,1-2.44,8c-0.95,2-1.74,4.47-1.75,4.49l-0.1.43H24.4V25.3H21.7v6.12ZM10,27.66L20.56,30V25.3H10v2.37h0Zm-2.68-3.5H23.24v-3.3H7.36v3.3Zm0.41-23A9.45,9.45,0,0,0,3.59,2.59,5.49,5.49,0,0,0,1.15,7.35c0,0.33.07,3.15,2.31,8.12C4.18,17.06,4.68,18.41,5,19.26l0.16,0.47H25.46l0.16-.43c0.28-.8.85-2.34,1.5-3.75a21.94,21.94,0,0,0,2.34-7.63,1.75,1.75,0,0,0,0-.25V7.3A5.48,5.48,0,0,0,27,2.55,10.45,10.45,0,0,0,21.3,1.13a15.07,15.07,0,0,0-2.95.29l-1.94.39L21,4.24a0.57,0.57,0,0,1-.25,1.06,0.56,0.56,0,0,1-.26-0.06L15.08,2.37l-0.56-.25a12.63,12.63,0,0,0-4-.94h0Z" transform="translate(-0.01 0.01)"/><path class="cls-1" d="M6.84,11.21A0.42,0.42,0,0,1,6.48,11,3.76,3.76,0,0,1,6.4,7.54a4.28,4.28,0,0,1,3-2.62h0a0.44,0.44,0,0,1,.48.33,0.42,0.42,0,0,1-.32.5h0A3.48,3.48,0,0,0,7.19,7.87a2.92,2.92,0,0,0,0,2.68A0.43,0.43,0,0,1,6.84,11.21Z" transform="translate(-0.01 0.01)"/></svg>
